Apricity Icons/apps/scalable/frogatto.svg

<svg viewBox="0 0 48 48"><defs><linearGradient id="linearGradient3764" x1="1" x2="47" gradientUnits="userSpaceOnUse" gradientTransform="matrix(0,-1,1,0,-1.5e-6,47.999998)"><stop stop-color="#3d3d3d" stop-opacity="1"/><stop offset="1" stop-color="#474747" stop-opacity="1"/></linearGradient><clipPath id="clipPath-003644862"><g transform="translate(0,-1004.3622)"><path d="m -24 13 c 0 1.105 -0.672 2 -1.5 2 -0.828 0 -1.5 -0.895 -1.5 -2 0 -1.105 0.672 -2 1.5 -2 0.828 0 1.5 0.895 1.5 2 z" transform="matrix(15.333333,0,0,11.5,414.99999,878.8622)" fill="#1890d0"/></g></clipPath><clipPath id="clipPath-013008175"><g transform="translate(0,-1004.3622)"><path d="m -24 13 c 0 1.105 -0.672 2 -1.5 2 -0.828 0 -1.5 -0.895 -1.5 -2 0 -1.105 0.672 -2 1.5 -2 0.828 0 1.5 0.895 1.5 2 z" transform="matrix(15.333333,0,0,11.5,414.99999,878.8622)" fill="#1890d0"/></g></clipPath><clipPath id="clip1"><path d="m 13 24 l 22 0 l 0 11 l -22 0 m 0 -11"/></clipPath><clipPath id="clip2"><path d="m 34.652 27.648 c 0 3.777 -4.738 6.844 -10.586 6.844 c -5.844 0 -10.582 -3.066 -10.582 -6.844 c 0 -3.781 4.738 -6.844 10.582 -6.844 c 5.848 0 10.586 3.063 10.586 6.844 m 0 0"/></clipPath><clipPath id="clip1"><path d="m 13 24 l 22 0 l 0 11 l -22 0 m 0 -11"/></clipPath><clipPath id="clip2"><path d="m 34.652 27.648 c 0 3.777 -4.738 6.844 -10.586 6.844 c -5.844 0 -10.582 -3.066 -10.582 -6.844 c 0 -3.781 4.738 -6.844 10.582 -6.844 c 5.848 0 10.586 3.063 10.586 6.844 m 0 0"/></clipPath></defs><g><path d="m 36.31 5 c 5.859 4.062 9.688 10.831 9.688 18.5 c 0 12.426 -10.07 22.5 -22.5 22.5 c -7.669 0 -14.438 -3.828 -18.5 -9.688 c 1.037 1.822 2.306 3.499 3.781 4.969 c 4.085 3.712 9.514 5.969 15.469 5.969 c 12.703 0 23 -10.298 23 -23 c 0 -5.954 -2.256 -11.384 -5.969 -15.469 c -1.469 -1.475 -3.147 -2.744 -4.969 -3.781 z m 4.969 3.781 c 3.854 4.113 6.219 9.637 6.219 15.719 c 0 12.703 -10.297 23 -23 23 c -6.081 0 -11.606 -2.364 -15.719 -6.219 c 4.16 4.144 9.883 6.719 16.219 6.719 c 12.703 0 23 -10.298 23 -23 c 0 -6.335 -2.575 -12.06 -6.719 -16.219 z" opacity="0.05"/><path d="m 41.28 8.781 c 3.712 4.085 5.969 9.514 5.969 15.469 c 0 12.703 -10.297 23 -23 23 c -5.954 0 -11.384 -2.256 -15.469 -5.969 c 4.113 3.854 9.637 6.219 15.719 6.219 c 12.703 0 23 -10.298 23 -23 c 0 -6.081 -2.364 -11.606 -6.219 -15.719 z" opacity="0.1"/><path d="m 31.25 2.375 c 8.615 3.154 14.75 11.417 14.75 21.13 c 0 12.426 -10.07 22.5 -22.5 22.5 c -9.708 0 -17.971 -6.135 -21.12 -14.75 a 23 23 0 0 0 44.875 -7 a 23 23 0 0 0 -16 -21.875 z" opacity="0.2"/></g><g><path d="m 24 1 c 12.703 0 23 10.297 23 23 c 0 12.703 -10.297 23 -23 23 -12.703 0 -23 -10.297 -23 -23 0 -12.703 10.297 -23 23 -23 z" fill="url(#linearGradient3764)" fill-opacity="1"/></g><g/><g><g clip-path="url(#clipPath-003644862)"><g transform="translate(1,1)"><g opacity="0.1"><!-- color: #474747 --><g><path d="m 4.468 9.273 c 0.219 0.132 0.448 0.252 0.681 0.359 c 0.137 0.063 0.277 0.122 0.42 0.169 c 0.733 0.246 1.545 0.182 2.293 -0.021 c 0.15 -0.04 0.298 -0.086 0.441 -0.137 c 0.463 -0.163 0.912 -0.398 1.231 -0.765 c 0.161 -0.184 0.288 -0.399 0.357 -0.634 c 0.067 -0.234 0.077 -0.488 0.013 -0.723 c -0.043 -0.157 -0.118 -0.304 -0.204 -0.443 c -0.139 -0.222 -0.305 -0.428 -0.509 -0.591 c -0.204 -0.163 -0.446 -0.282 -0.704 -0.325 c -0.104 -0.02 -0.212 -0.022 -0.313 -0.054 c -0.051 -0.014 -0.097 -0.036 -0.14 -0.067 c -0.043 -0.031 -0.079 -0.073 -0.101 -0.121 c -0.033 -0.073 -0.03 -0.159 -0.012 -0.237 c 0.019 -0.078 0.052 -0.152 0.08 -0.228 c 0.137 -0.374 0.129 -0.795 0 -1.172 c -0.047 -0.136 -0.109 -0.268 -0.197 -0.38 c -0.088 -0.116 -0.203 -0.208 -0.336 -0.261 c -0.165 -0.066 -0.357 -0.062 -0.527 -0.004 c -0.17 0.057 -0.319 0.166 -0.439 0.301 c -0.047 0.053 -0.089 0.109 -0.139 0.159 c -0.051 0.05 -0.11 0.093 -0.18 0.107 c -0.062 0.013 -0.122 0.007 -0.183 -0.011 c -0.128 -0.035 -0.237 -0.111 -0.345 -0.187 c -0.108 -0.076 -0.219 -0.153 -0.345 -0.193 c -0.164 -0.051 -0.346 -0.031 -0.505 0.04 c -0.158 0.073 -0.289 0.191 -0.387 0.331 c -0.198 0.28 -0.268 0.633 -0.313 0.971 c -0.043 0.312 -0.074 0.635 0.011 0.939 c 0.022 0.085 0.054 0.169 0.078 0.252 c 0.025 0.085 0.043 0.172 0.041 0.26 c -0.011 0.164 -0.101 0.313 -0.205 0.444 c -0.099 0.13 -0.215 0.255 -0.29 0.401 c -0.111 0.229 -0.11 0.505 -0.033 0.75 c 0.105 0.321 0.331 0.584 0.557 0.836 c 0.089 0.099 0.181 0.197 0.272 0.294" transform="matrix(3.543307,0,0,3.543307,0,0)" stroke-opacity="1" fill="#000" fill-rule="nonzero" stroke="#452f58" stroke-linejoin="miter" fill-opacity="1" stroke-linecap="butt" stroke-width="0.409" stroke-miterlimit="4"/><path d="m 28.02 21.297 c -0.656 1.426 -1.723 2.367 -2.941 2.367 c -1.078 0 -2.027 -0.754 -2.695 -1.91 c -0.605 2.41 -2.109 4.113 -3.883 4.113 c -1.23 0 -2.328 -0.828 -3.09 -2.137 c -1.199 1.109 -1.926 2.473 -1.926 3.93 c 0 3.781 4.734 6.828 10.582 6.828 c 5.848 0 10.582 -3.047 10.582 -6.828 c 0 -2.879 -2.738 -5.355 -6.625 -6.367 m -0.004 0.004" fill="#000" stroke="none" fill-rule="nonzero" fill-opacity="1"/><path d="m 20.313 14.344 c 0.129 0.113 0.258 0.242 0.375 0.375 c -0.121 -0.133 -0.242 -0.262 -0.375 -0.375 m 2.688 0.125 c -0.121 0.172 -0.238 0.363 -0.344 0.563 c 0.105 -0.203 0.223 -0.387 0.344 -0.563 m -1.531 1.469 c 0.105 0.215 0.199 0.449 0.281 0.688 c -0.086 -0.238 -0.176 -0.469 -0.281 -0.688 m -6.25 0.75 c -0.105 0.309 -0.172 0.633 -0.25 0.969 c 0.07 -0.34 0.148 -0.66 0.25 -0.969 m -0.25 0.969 c -0.121 0.551 -0.219 1.137 -0.219 1.75 c 0 3.203 1.684 5.781 3.75 5.781 c 1.965 0 3.563 -2.336 3.719 -5.313 c 0.477 1.727 1.59 2.938 2.875 2.938 c 1.555 0 2.809 -1.754 3.03 -4.063 l -13.06 0 c -0.082 0 -0.172 -0.027 -0.25 -0.031 c 0.027 -0.359 0.086 -0.723 0.156 -1.063 m 6.813 -0.906 c 0.078 0.238 0.164 0.496 0.223 0.75 c -0.063 -0.262 -0.141 -0.508 -0.223 -0.75 m 0 0" fill="#000" stroke="none" fill-rule="nonzero" fill-opacity="1"/><path d="m 25.418 20.13 c 0 0.746 -0.484 1.348 -1.082 1.348 c -0.598 0 -1.082 -0.602 -1.082 -1.348 c 0 -0.746 0.484 -1.352 1.082 -1.352 c 0.598 0 1.082 0.605 1.082 1.352 m 0 0" fill="#000" stroke="none" fill-rule="nonzero" fill-opacity="1"/><path d="m 25.09 13.215 c -1.598 0 -2.902 1.891 -3.063 4.301 c -0.508 -2.273 -1.875 -3.91 -3.512 -3.91 c -1.914 0 -3.465 2.23 -3.688 5.102 c 0.082 0.004 0.168 0.023 0.25 0.023 l 13.08 0 c 0.02 -0.234 0.047 -0.469 0.047 -0.711 c 0 -2.652 -1.402 -4.805 -3.113 -4.805 m -0.004 0" fill="#000" stroke="none" fill-rule="nonzero" fill-opacity="1"/><path d="m 21.797 20.523 c 0 0.746 -0.484 1.352 -1.082 1.352 c -0.598 0 -1.082 -0.605 -1.082 -1.352 c 0 -0.746 0.484 -1.348 1.082 -1.348 c 0.598 0 1.082 0.602 1.082 1.348 m 0 0" fill="#000" stroke="none" fill-rule="nonzero" fill-opacity="1"/><g clip-path="url(#clip1)"><g clip-path="url(#clip2)"><path d="m 42.86 13.195 l 2.947 -2.586 l 3.234 3.521 l 3.525 -3.165 l 3.238 3.887 l 4.315 -3.887 l 3.164 2.374 l 2.301 -2.299 l 2.73 1.981" transform="matrix(0.791266,0,0,0.735645,-19.855015,20.551191)" stroke-opacity="1" fill="#000" stroke="#452f58" stroke-linejoin="miter" stroke-linecap="butt" stroke-width="1" stroke-miterlimit="4"/></g></g></g></g></g></g></g><g><g clip-path="url(#clipPath-013008175)"><!-- color: #474747 --><g><path d="m 4.468 9.273 c 0.219 0.132 0.448 0.252 0.681 0.359 c 0.137 0.063 0.277 0.122 0.42 0.169 c 0.733 0.246 1.545 0.182 2.293 -0.021 c 0.15 -0.04 0.298 -0.086 0.441 -0.137 c 0.463 -0.163 0.912 -0.398 1.231 -0.765 c 0.161 -0.184 0.288 -0.399 0.357 -0.634 c 0.067 -0.234 0.077 -0.488 0.013 -0.723 c -0.043 -0.157 -0.118 -0.304 -0.204 -0.443 c -0.139 -0.222 -0.305 -0.428 -0.509 -0.591 c -0.204 -0.163 -0.446 -0.282 -0.704 -0.325 c -0.104 -0.02 -0.212 -0.022 -0.313 -0.054 c -0.051 -0.014 -0.097 -0.036 -0.14 -0.067 c -0.043 -0.031 -0.079 -0.073 -0.101 -0.121 c -0.033 -0.073 -0.03 -0.159 -0.012 -0.237 c 0.019 -0.078 0.052 -0.152 0.08 -0.228 c 0.137 -0.374 0.129 -0.795 0 -1.172 c -0.047 -0.136 -0.109 -0.268 -0.197 -0.38 c -0.088 -0.116 -0.203 -0.208 -0.336 -0.261 c -0.165 -0.066 -0.357 -0.062 -0.527 -0.004 c -0.17 0.057 -0.319 0.166 -0.439 0.301 c -0.047 0.053 -0.089 0.109 -0.139 0.159 c -0.051 0.05 -0.11 0.093 -0.18 0.107 c -0.062 0.013 -0.122 0.007 -0.183 -0.011 c -0.128 -0.035 -0.237 -0.111 -0.345 -0.187 c -0.108 -0.076 -0.219 -0.153 -0.345 -0.193 c -0.164 -0.051 -0.346 -0.031 -0.505 0.04 c -0.158 0.073 -0.289 0.191 -0.387 0.331 c -0.198 0.28 -0.268 0.633 -0.313 0.971 c -0.043 0.312 -0.074 0.635 0.011 0.939 c 0.022 0.085 0.054 0.169 0.078 0.252 c 0.025 0.085 0.043 0.172 0.041 0.26 c -0.011 0.164 -0.101 0.313 -0.205 0.444 c -0.099 0.13 -0.215 0.255 -0.29 0.401 c -0.111 0.229 -0.11 0.505 -0.033 0.75 c 0.105 0.321 0.331 0.584 0.557 0.836 c 0.089 0.099 0.181 0.197 0.272 0.294" transform="matrix(3.543307,0,0,3.543307,0,0)" stroke-opacity="1" fill="#090" fill-rule="nonzero" stroke="#452f58" stroke-linejoin="miter" fill-opacity="1" stroke-linecap="butt" stroke-width="0.409" stroke-miterlimit="4"/><path d="m 28.02 21.297 c -0.656 1.426 -1.723 2.367 -2.941 2.367 c -1.078 0 -2.027 -0.754 -2.695 -1.91 c -0.605 2.41 -2.109 4.113 -3.883 4.113 c -1.23 0 -2.328 -0.828 -3.09 -2.137 c -1.199 1.109 -1.926 2.473 -1.926 3.93 c 0 3.781 4.734 6.828 10.582 6.828 c 5.848 0 10.582 -3.047 10.582 -6.828 c 0 -2.879 -2.738 -5.355 -6.625 -6.367 m -0.004 0.004" fill="#6c3" stroke="none" fill-rule="nonzero" fill-opacity="1"/><path d="m 20.313 14.344 c 0.129 0.113 0.258 0.242 0.375 0.375 c -0.121 -0.133 -0.242 -0.262 -0.375 -0.375 m 2.688 0.125 c -0.121 0.172 -0.238 0.363 -0.344 0.563 c 0.105 -0.203 0.223 -0.387 0.344 -0.563 m -1.531 1.469 c 0.105 0.215 0.199 0.449 0.281 0.688 c -0.086 -0.238 -0.176 -0.469 -0.281 -0.688 m -6.25 0.75 c -0.105 0.309 -0.172 0.633 -0.25 0.969 c 0.07 -0.34 0.148 -0.66 0.25 -0.969 m -0.25 0.969 c -0.121 0.551 -0.219 1.137 -0.219 1.75 c 0 3.203 1.684 5.781 3.75 5.781 c 1.965 0 3.563 -2.336 3.719 -5.313 c 0.477 1.727 1.59 2.938 2.875 2.938 c 1.555 0 2.809 -1.754 3.03 -4.063 l -13.06 0 c -0.082 0 -0.172 -0.027 -0.25 -0.031 c 0.027 -0.359 0.086 -0.723 0.156 -1.063 m 6.813 -0.906 c 0.078 0.238 0.164 0.496 0.223 0.75 c -0.063 -0.262 -0.141 -0.508 -0.223 -0.75 m 0 0" fill="#f9f9f9" stroke="none" fill-rule="nonzero" fill-opacity="1"/><path d="m 25.418 20.13 c 0 0.746 -0.484 1.348 -1.082 1.348 c -0.598 0 -1.082 -0.602 -1.082 -1.348 c 0 -0.746 0.484 -1.352 1.082 -1.352 c 0.598 0 1.082 0.605 1.082 1.352 m 0 0" fill="#705ba1" stroke="none" fill-rule="nonzero" fill-opacity="1"/><path d="m 25.09 13.215 c -1.598 0 -2.902 1.891 -3.063 4.301 c -0.508 -2.273 -1.875 -3.91 -3.512 -3.91 c -1.914 0 -3.465 2.23 -3.688 5.102 c 0.082 0.004 0.168 0.023 0.25 0.023 l 13.08 0 c 0.02 -0.234 0.047 -0.469 0.047 -0.711 c 0 -2.652 -1.402 -4.805 -3.113 -4.805 m -0.004 0" fill="#6c3" stroke="none" fill-rule="nonzero" fill-opacity="1"/><path d="m 21.797 20.523 c 0 0.746 -0.484 1.352 -1.082 1.352 c -0.598 0 -1.082 -0.605 -1.082 -1.352 c 0 -0.746 0.484 -1.348 1.082 -1.348 c 0.598 0 1.082 0.602 1.082 1.348 m 0 0" fill="#705ba1" stroke="none" fill-rule="nonzero" fill-opacity="1"/><g clip-path="url(#clip1)"><g clip-path="url(#clip2)"><path d="m 42.86 13.195 l 2.947 -2.586 l 3.234 3.521 l 3.525 -3.165 l 3.238 3.887 l 4.315 -3.887 l 3.164 2.374 l 2.301 -2.299 l 2.73 1.981" transform="matrix(0.791266,0,0,0.735645,-19.855015,20.551191)" stroke-opacity="1" fill="none" stroke="#452f58" stroke-linejoin="miter" stroke-linecap="butt" stroke-width="1" stroke-miterlimit="4"/></g></g></g></g></g><g><path d="m 40.03 7.531 c 3.712 4.084 5.969 9.514 5.969 15.469 0 12.703 -10.297 23 -23 23 c -5.954 0 -11.384 -2.256 -15.469 -5.969 4.178 4.291 10.01 6.969 16.469 6.969 c 12.703 0 23 -10.298 23 -23 0 -6.462 -2.677 -12.291 -6.969 -16.469 z" opacity="0.1"/></g></svg>

<svg xmlns="http://www.w3.org/2000/svg" viewBox="0 0 48 48">
 <defs>
  <linearGradient id="linearGradient3764" x1="1" x2="47" gradientUnits="userSpaceOnUse" gradientTransform="matrix(0,-1,1,0,-1.5e-6,47.999998)">
   <stop style="stop-color:#3d3d3d;stop-opacity:1"/>
   <stop offset="1" style="stop-color:#474747;stop-opacity:1"/>
  </linearGradient>
 </defs>
 <g>
  <path d="m 36.31 5 c 5.859 4.062 9.688 10.831 9.688 18.5 c 0 12.426 -10.07 22.5 -22.5 22.5 c -7.669 0 -14.438 -3.828 -18.5 -9.688 c 1.037 1.822 2.306 3.499 3.781 4.969 c 4.085 3.712 9.514 5.969 15.469 5.969 c 12.703 0 23 -10.298 23 -23 c 0 -5.954 -2.256 -11.384 -5.969 -15.469 c -1.469 -1.475 -3.147 -2.744 -4.969 -3.781 z m 4.969 3.781 c 3.854 4.113 6.219 9.637 6.219 15.719 c 0 12.703 -10.297 23 -23 23 c -6.081 0 -11.606 -2.364 -15.719 -6.219 c 4.16 4.144 9.883 6.719 16.219 6.719 c 12.703 0 23 -10.298 23 -23 c 0 -6.335 -2.575 -12.06 -6.719 -16.219 z" style="opacity:0.05"/>
  <path d="m 41.28 8.781 c 3.712 4.085 5.969 9.514 5.969 15.469 c 0 12.703 -10.297 23 -23 23 c -5.954 0 -11.384 -2.256 -15.469 -5.969 c 4.113 3.854 9.637 6.219 15.719 6.219 c 12.703 0 23 -10.298 23 -23 c 0 -6.081 -2.364 -11.606 -6.219 -15.719 z" style="opacity:0.1"/>
  <path d="m 31.25 2.375 c 8.615 3.154 14.75 11.417 14.75 21.13 c 0 12.426 -10.07 22.5 -22.5 22.5 c -9.708 0 -17.971 -6.135 -21.12 -14.75 a 23 23 0 0 0 44.875 -7 a 23 23 0 0 0 -16 -21.875 z" style="opacity:0.2"/>
 </g>
 <g>
  <path d="m 24 1 c 12.703 0 23 10.297 23 23 c 0 12.703 -10.297 23 -23 23 -12.703 0 -23 -10.297 -23 -23 0 -12.703 10.297 -23 23 -23 z" style="fill:url(#linearGradient3764);fill-opacity:1"/>
 </g>
 <g>
  <g>
   <g transform="translate(1,1)">
    <g style="opacity:0.1">
     <!-- color: #474747 -->
     <g>
      <path d="m 24.36 12.208 c -0.741 0.251 -1.369 0.713 -1.862 1.266 -0.192 0.217 -0.334 0.404 -0.464 0.533 -0.124 0.119 -0.226 0.171 -0.27 0.18 l -0.007 0 c -0.084 0.018 -0.156 0.019 -0.291 -0.021 l -0.007 0 -0.007 -0.007 c -0.297 -0.081 -0.616 -0.286 -0.997 -0.554 -0.385 -0.271 -0.841 -0.596 -1.426 -0.782 -0.778 -0.242 -1.599 -0.142 -2.305 0.173 l -0.007 0 c -0.688 0.318 -1.243 0.827 -1.654 1.412 -0.821 1.161 -1.075 2.535 -1.239 3.765 -0.155 1.126 -0.287 2.37 0.062 3.619 0.091 0.347 0.204 0.649 0.277 0.9 0.075 0.255 0.112 0.48 0.111 0.678 -0.026 0.345 -0.241 0.752 -0.567 1.163 l 0 0.007 -0.007 0.007 c -0.321 0.422 -0.766 0.892 -1.093 1.529 l -0.007 0.007 0 0.007 c -0.494 1.019 -0.478 2.175 -0.159 3.19 l 0 0.007 c 0.431 1.318 1.317 2.317 2.125 3.218 1.023 1.146 2.212 1.698 3.377 2.284 0.497 0.229 1.016 0.444 1.557 0.623 2.786 0.935 5.806 0.682 8.547 -0.062 0.533 -0.128 1.141 -0.344 1.613 -0.498 1.708 -0.601 3.414 -1.482 4.664 -2.92 0.63 -0.72 1.14 -1.57 1.419 -2.519 0.27 -0.944 0.315 -1.976 0.048 -2.955 -0.179 -0.652 -0.484 -1.231 -0.81 -1.758 l 0 -0.007 c -0.523 -0.836 -1.16 -1.626 -1.965 -2.27 -0.807 -0.645 -1.768 -1.125 -2.824 -1.301 -0.443 -0.084 -0.789 -0.103 -1.01 -0.173 l -0.014 0 -0.014 -0.007 c -0.193 -0.009 -0.259 -0.176 -0.388 -0.263 -0.038 -0.145 0.005 -0.269 0.007 -0.381 0.047 -0.19 0.147 -0.424 0.256 -0.72 0.549 -1.499 0.515 -3.153 0.007 -4.637 l -0.007 0 c -0.183 -0.528 -0.426 -1.068 -0.803 -1.55 l -0.007 -0.007 c -0.382 -0.501 -0.888 -0.915 -1.488 -1.156 l -0.007 0 c -0.772 -0.307 -1.619 -0.276 -2.367 -0.021" mix-blend-mode="normal" isolation="auto" white-space="normal" solid-opacity="1" solid-color="#000000" style="visibility:visible;shape-rendering:auto;color-interpolation-filters:linearRGB;fill:#000;opacity:1;image-rendering:auto;fill-opacity:1;stroke:none;display:inline;color:#000;fill-rule:nonzero;color-rendering:auto;color-interpolation:sRGB"/>
     </g>
    </g>
   </g>
  </g>
 </g>
 <g transform="translate(1.1242749e-4,0)">
  <g>
   <!-- color: #474747 -->
   <g>
    <path d="M 4.468,9.273 C 4.687,9.405 4.916,9.525 5.149,9.632 5.286,9.695 5.426,9.754 5.569,9.801 6.302,10.047 7.114,9.983 7.862,9.78 8.012,9.74 8.16,9.694 8.303,9.643 8.766,9.48 9.215,9.245 9.534,8.878 9.695,8.694 9.822,8.479 9.891,8.244 9.958,8.01 9.968,7.756 9.904,7.521 9.861,7.364 9.786,7.217 9.7,7.078 9.561,6.856 9.395,6.65 9.191,6.487 8.987,6.324 8.745,6.205 8.487,6.162 8.383,6.142 8.275,6.14 8.174,6.108 8.123,6.094 8.077,6.072 8.034,6.041 7.991,6.01 7.955,5.968 7.933,5.92 7.9,5.847 7.903,5.761 7.921,5.683 7.94,5.605 7.973,5.531 8.001,5.455 8.138,5.081 8.13,4.66 8.001,4.283 7.954,4.147 7.892,4.015 7.804,3.903 7.716,3.787 7.601,3.695 7.468,3.642 7.303,3.576 7.111,3.58 6.941,3.638 6.771,3.695 6.622,3.804 6.502,3.939 6.455,3.992 6.413,4.048 6.363,4.098 6.312,4.148 6.253,4.191 6.183,4.205 6.121,4.218 6.061,4.212 6,4.194 5.872,4.159 5.763,4.083 5.655,4.007 5.547,3.931 5.436,3.854 5.31,3.814 5.146,3.763 4.964,3.783 4.805,3.854 4.647,3.927 4.516,4.045 4.418,4.185 4.22,4.465 4.15,4.818 4.105,5.156 4.062,5.468 4.031,5.791 4.116,6.095 4.138,6.18 4.17,6.264 4.194,6.347 4.219,6.432 4.237,6.519 4.235,6.607 4.224,6.771 4.134,6.92 4.03,7.051 3.931,7.181 3.815,7.306 3.74,7.452 3.629,7.681 3.63,7.957 3.707,8.202 3.812,8.523 4.038,8.786 4.264,9.038 4.353,9.137 4.445,9.235 4.536,9.332" transform="scale(3.543307,3.543307)" style="stroke-opacity:1;fill:#090;stroke-miterlimit:4;fill-opacity:1;stroke:#452f58;fill-rule:nonzero;stroke-linecap:butt;stroke-linejoin:miter;stroke-width:0.409"/>
    <path d="m 28.02 21.297 c -0.656 1.426 -1.723 2.367 -2.941 2.367 -1.078 0 -2.027 -0.754 -2.695 -1.91 -0.605 2.41 -2.109 4.113 -3.883 4.113 -1.23 0 -2.328 -0.828 -3.09 -2.137 -1.199 1.109 -1.926 2.473 -1.926 3.93 0 3.781 4.734 6.828 10.582 6.828 5.848 0 10.582 -3.047 10.582 -6.828 0 -2.879 -2.738 -5.355 -6.625 -6.367 m -0.004 0.004" style="fill:#6c3;fill-opacity:1;stroke:none;fill-rule:nonzero"/>
    <path d="m 14.751 19.407 c 0 3.203 1.684 5.781 3.75 5.781 1.965 0 3.563 -2.336 3.719 -5.313 0.477 1.727 1.59 2.938 2.875 2.938 1.555 0 2.809 -1.754 3.03 -4.063 l -13.31 0" style="fill:#f9f9f9;fill-opacity:1;stroke:none;fill-rule:nonzero"/>
    <path d="m 25.418 20.13 c 0 0.746 -0.484 1.348 -1.082 1.348 -0.598 0 -1.082 -0.602 -1.082 -1.348 0 -0.746 0.484 -1.352 1.082 -1.352 0.598 0 1.082 0.605 1.082 1.352 m 0 0" style="fill:#705ba1;fill-opacity:1;stroke:none;fill-rule:nonzero"/>
    <path d="m 25.09 13.215 c -1.598 0 -2.902 1.891 -3.063 4.301 -0.508 -2.273 -1.875 -3.91 -3.512 -3.91 -1.914 0 -3.472 2.272 -3.695 5.144 l 13.31 0 c 0.02 -0.234 0.074 -0.488 0.074 -0.73 0 -2.652 -1.402 -4.805 -3.113 -4.805" style="fill:#6c3;fill-opacity:1;stroke:none;fill-rule:nonzero"/>
    <path d="m 21.797 20.523 c 0 0.746 -0.484 1.352 -1.082 1.352 -0.598 0 -1.082 -0.605 -1.082 -1.352 0 -0.746 0.484 -1.348 1.082 -1.348 0.598 0 1.082 0.602 1.082 1.348 m 0 0" style="fill:#705ba1;fill-opacity:1;stroke:none;fill-rule:nonzero"/>
    <g>
     <g>
      <path d="m 42.86 13.195 2.947 -2.586 3.234 3.521 3.525 -3.165 3.238 3.887 4.315 -3.887 3.164 2.374 2.301 -2.299 2.73 1.981" transform="matrix(0.791266,0,0,0.735645,-19.855015,20.551191)" style="stroke-opacity:1;fill:none;stroke-miterlimit:4;stroke:#452f58;stroke-linecap:butt;stroke-linejoin:miter;stroke-width:1"/>
     </g>
    </g>
   </g>
  </g>
 </g>
 <g>
  <path d="m 40.03 7.531 c 3.712 4.084 5.969 9.514 5.969 15.469 0 12.703 -10.297 23 -23 23 c -5.954 0 -11.384 -2.256 -15.469 -5.969 4.178 4.291 10.01 6.969 16.469 6.969 c 12.703 0 23 -10.298 23 -23 0 -6.462 -2.677 -12.291 -6.969 -16.469 z" style="opacity:0.1"/>
 </g>
</svg>
